svg/archive_minus_outline.svg

<svg xmlns="http://www.w3.org/2000/svg" viewBox="0 0 24 24"><path d="M13 19c0 .7.13 1.37.35 2H4V10h2v9zm6-6c.34 0 .67.04 1 .09V10h-2v3.09c.33-.05.66-.09 1-.09m-9.5-2c-.28 0-.5.22-.5.5V13h6v-1.5c0-.28-.22-.5-.5-.5zM21 9H3V3h18zm-2-4H5v2h14zm-4 13v2h8v-2z"/></svg>

<svg xmlns="http://www.w3.org/2000/svg" id="mdi-archive-minus-outline" viewBox="0 0 24 24"><path d="M13 19C13 19.7 13.13 20.37 13.35 21H4V10H6V19H13M19 13C19.34 13 19.67 13.04 20 13.09V10H18V13.09C18.33 13.04 18.66 13 19 13M9.5 11C9.22 11 9 11.22 9 11.5V13H15V11.5C15 11.22 14.78 11 14.5 11H9.5M21 9H3V3H21V9M19 5H5V7H19V5M15 18V20H23V18H15Z" /></svg>
